X:63
T:Gortmore Jig*
B:NFID.232b ("untitled jig")
S:PT
Z:Robinson/Black
063gort
L:1/8
M:6/8
R:jig
Q:320
K:A=G
G|ABA A2B|G2G G2B|ABA ABd|e2d efg|
ABA A2B|G2G GAB|c2A BAG|A3A2:|
f|g2e e2f|gfe dBA|g2e e2f|g2a b2a|
g2e e2f|gfe dcB|c2A BAG|A3A2:|

%%%

